X: 213
T: Idam, ne idam
B: incoming
M:7/8
L:1/8
Q: 1/4=120
K:F
V:1 
   "C"[EC]3 "C7"[B,CE]2 [B,CE][A,CE]       |[B,CE]2[A,CE] [B,CE]4      |\
   "fm"[F,CD][F,CD]2[F,_A,CD]2 [A,CD][G,CF]|"G" [G,=B,D]3-[G,B,D]4     :|
V:2 
   x7                                      |x7                         |\
   x7                                      |x7                         :|
W: Transcribed by Birgitt Karlson
W: http://www-linux.gsi.de/~karlson/index_e.htm
% abcbook-tune_id 63cb082f1a30272f779c2372
% abcbook-tune_composer_id 
% abcbook-boost 0
% abcbook-difficulty 0
% abcbook-tags balkan dances
% abcbook-tablature 
% abcbook-transpose 
% abcbook-tuning 
% abcbook-lastupdated 1674250287866
% abcbook-soundfonts 
% abcbook-repeats 1
%% staves (1 2)
%% staves 1

